X: 280
T: A Mother's Love Is A Blessing
R: waltz
M: 3/4
K: Dmajor
AG||F4A2|G4F2|E2D4-|D4AB|d4e2|d2c2B2|A6-|A4Bc|
d4ed|c4B2|A2F4-|F4A2|B4E2|E4F2|E6-|E4AG|
F4A2|G4F2|E2D4-|D4AB|d4e2|d2c2B2|A6-|A4Bc|
d4d2|c4B2|A4F2|D2E2F2|G2A2B2|F4E2|D6-|D4||

